svgs/bigbasket.svg

<?xml version="1.0" encoding="UTF-8" standalone="no"?>
<svg
   width="192"
   height="192"
   viewBox="0 0 192 192"
   fill="none"
   version="1.1"
   id="svg1092"
   inkscape:version="1.2.1 (9c6d41e410, 2022-07-14)"
   sodipodi:docname="bigbasket.svg"
   xmlns:inkscape="http://www.inkscape.org/namespaces/inkscape"
   xmlns:sodipodi="http://sodipodi.sourceforge.net/DTD/sodipodi-0.dtd"
   xmlns="http://www.w3.org/2000/svg"
   xmlns:svg="http://www.w3.org/2000/svg">
  <defs
     id="defs1096" />
  <sodipodi:namedview
     id="namedview1094"
     pagecolor="#ffffff"
     bordercolor="#000000"
     borderopacity="0.25"
     inkscape:showpageshadow="2"
     inkscape:pageopacity="0.0"
     inkscape:pagecheckerboard="0"
     inkscape:deskcolor="#d1d1d1"
     showgrid="false"
     inkscape:zoom="4.0416667"
     inkscape:cx="73.113402"
     inkscape:cy="96"
     inkscape:window-width="1920"
     inkscape:window-height="974"
     inkscape:window-x="-11"
     inkscape:window-y="-11"
     inkscape:window-maximized="1"
     inkscape:current-layer="svg1092" />
  <g
     id="g1086"
     transform="matrix(0.92307692,0,0,0.92307692,29.538462,29.538462)"
     style="stroke-width:1.08333">
    <path
       class="a"
       d="M 135.77027,0.49999895 H 8.2297288 A 7.7297298,7.7297298 0 0 0 0.49999895,8.2297288 V 135.77027 A 7.7297298,7.7297298 0 0 0 8.2297288,143.5 H 135.77027 A 7.7297298,7.7297298 0 0 0 143.5,135.77027 V 8.2297288 a 7.7297298,7.7297298 0 0 0 -7.72973,-7.72972985 z"
       id="path6"
       style="fill:none;stroke:#000000;stroke-width:13;stroke-linecap:round;stroke-linejoin:round;stroke-dasharray:none" />
    <path
       class="a"
       d="M 24.550667,24.226405 V 119.88568"
       id="path8"
       style="fill:none;stroke:#000000;stroke-width:13;stroke-linecap:round;stroke-linejoin:round;stroke-dasharray:none" />
    <path
       class="a"
       d="M 83.872865,87.884594 A 30.336871,30.336871 0 0 1 54.422594,118.93299 30.297449,30.297449 0 0 1 24.612118,88.261805 30.360446,30.360446 0 0 1 53.850594,56.995048 30.275419,30.275419 0 0 1 83.869386,87.444"
       id="path10"
       style="fill:none;stroke:#000000;stroke-width:13;stroke-linecap:round;stroke-linejoin:round;stroke-dasharray:none" />
    <path
       class="a"
       d="M 59.780843,24.114323 V 51.796418"
       id="path12"
       style="fill:none;stroke:#000000;stroke-width:13;stroke-linecap:round;stroke-linejoin:round;stroke-dasharray:none" />
    <path
       class="a"
       d="M 78.234413,60.224916 A 29.30186,29.30186 0 0 1 113.25009,105.16711 31.549279,31.549279 0 0 1 78.006,116.553"
       id="path14"
       style="fill:none;stroke:#000000;stroke-width:13;stroke-linecap:round;stroke-linejoin:round;stroke-dasharray:none" />
  </g>
</svg>

<svg width="192" height="192" fill="none" xmlns="http://www.w3.org/2000/svg"><g style="stroke-width:1.08333"><path class="a" d="M135.77.5H8.23A7.73 7.73 0 0 0 .5 8.23v127.54a7.73 7.73 0 0 0 7.73 7.73h127.54a7.73 7.73 0 0 0 7.73-7.73V8.23A7.73 7.73 0 0 0 135.77.5zM24.55 24.226v95.66" style="fill:none;stroke:#000;stroke-width:13;stroke-linecap:round;stroke-linejoin:round;stroke-dasharray:none" transform="matrix(.92308 0 0 .92308 29.538 29.538)"/><path class="a" d="M83.873 87.885a30.337 30.337 0 0 1-29.45 31.048 30.297 30.297 0 0 1-29.81-30.671A30.36 30.36 0 0 1 53.85 56.995a30.275 30.275 0 0 1 30.018 30.449M59.78 24.114v27.682" style="fill:none;stroke:#000;stroke-width:13;stroke-linecap:round;stroke-linejoin:round;stroke-dasharray:none" transform="matrix(.92308 0 0 .92308 29.538 29.538)"/><path class="a" d="M78.234 60.225a29.302 29.302 0 0 1 35.016 44.942 31.55 31.55 0 0 1-35.244 11.386" style="fill:none;stroke:#000;stroke-width:13;stroke-linecap:round;stroke-linejoin:round;stroke-dasharray:none" transform="matrix(.92308 0 0 .92308 29.538 29.538)"/></g></svg>
